X:1
T:Magnificat - Pitoni
T:#
%%score [ 1 2 3 4 ]
L:1/8
Q:1/4=216
M:none
K:C
V:1 treble nm="Soprano" snm="S"
V:2 treble nm="Alto" snm="A"
V:3 treble-8 nm="Tenor" snm="T"
V:4 bass nm="Bass" snm="B"
V:1
"^Giuseppe Pitoni\n(1657-1743)""^Magnificat" B8 c6 c2 | c4 A6 A2 A4 | G2 C2 c8 B4 | c4 c4 d4 c4 | %4
w: Ma- gni- fi-|cat a- ni- ma|me- a Do- mi-|num. Et ex- ul-|
 c8 c4 c4 | c4 c4 A8 | c4 B4 B4 B4 | A12 ^G4 | A2 F2 (A8 ^G4) | A8 ||[M:3/2] A4 A4 A4 | A8 A4 | %12
w: ta- vit spi-|ri- tus me-|us in De- o|sa- lu-|ta- ri me\- *|o.|Qui- a re-|spe- xit|
 A4 A4 A4 | c8 c4 | B4 A4 A4 | ^G8 G4 | z4 ^G4 A4 |[M:3/2] B4 B4 A4 | B8 B4 | G4 G4 B4- | B4 c8 | %21
w: hu- mi- li-|ta- tem|an- cil- lae|su- ae:|ec- ce|e- nim ex|hoc be-|a- tam me|* di-|
 B4 B4 c4 | B12 | A12 | z4 G4 G4 | G6 G2 G4 | G8 ^F4 || G4 B8 c4 | A8 ^G4 G4- | G4 A4 B8 | %30
w: cent o- mnes,|o-|mnes,|o- mnes|ge- ne- ra-|ti- o-|nes. Qui- a|fe- cit mi\-|* hi ma-|
 B4 c4 (A8 | B4 A8) ^G4 | A8 z4 A4 | A4 A4 c4 c4 | c16 | B8 ||[M:3/2] G8 G4 | A8 G4 | A6 A2 G4 | %39
w: gna, qui po\-|* * tens|est, et|san- ctum no- men|e-|ius.|Et mi-|se- ri-|cor- di- a|
 (G8 ^F4) | G4 B4 A4 | B6 B2 c4 | z4 c4 B4 | c6 c2 c4 | _B4 B6 B2 |[M:3/2] A4 A8 | A8 z4 | %47
w: e\- *|ius a pro-|ge- ni- e|in pro-|ge- ni- es|ti- men- ti-|bus e-|um.|
 A4 A4 A4 | B6 B2 B4 | G4 A6 A2 | B4 A8 | B8 B4 | c4 B4 c4 | c4 c4 z4 | B4 A8 | B4 B4 B4 | G8 A4- | %57
w: Fe- cit po-|ten- ti- am|in bra- chi-|o su-|o: di-|sper- sit, di-|sper- sit|su- per-|bos, men- te|cor- dis|
 A4 G8 | G8 c4 | d8 c4 | c8 c4 | c4 B4 B4 | A4 A4 A4 | B8 A4 | G8 B4 | B8 A4 | B12 || %67
w: * su-|i. De-|po- su-|it po-|ten- tes de|se- de, et|ex- al-|ta- vit|hu- mi-|les.|
 z4 ^F4 F4 G4 | A8 A4 B4 | G2 E2 (e8 d4) | e4 ^G4 G4 A4 | B4 c4 B4 c4 | z4 B4 A4 B4 || %73
w: E- su- ri-|en- tes im-|ple- vit bo\- *|nis: et di- vi-|tes di- mi- sit|i- na- nes.|
[M:3/2] B4 A4 B4 | c6 c2 c4 | c4 c4 c4 | (c8 B4) | c4 c4 c4 | c8 c4 | c4 c4 c4 | d6 d2 c4- | %81
w: Su- sce- pit|Is- ra- el|pu- e- rum|su\- *|um, re- cor-|da- tus|mi- se- ri-|cor- di- ae|
 c4 c8 | B12 || G8 A4 B4 | c4 A4 B4 B4 | c4 c4 A4 c4 | B6 B2 B4 B4 | c8 c4 A4 | _B8 G4 (A4- | %89
w: * su-|ae.|Si- cut lo-|cu- tus est ad|pa- tres no- stros,|A- bra- ham, et|se- mi- ni|e- ius in|
 A2 G2) (F8 G4- | G2 F2 F8) E4 | F8 ||[M:3/2] G6 G2 G4 |[M:3/2] G4 A4 c4 | B6 B2 B4 | A8 A4 | %96
w: * * sae\- *|* * * cu-|la.|Glo- ri- a|Pa- tri, et|Fi- li- o,|et Spi-|
 A6 A2 G4- | G4 A8 | A4 A4 A4 | B8 B4 | z4 c4 c4 | c6 c2 c4 | B4 c4 B4 | e4 c8 | %104
w: ri- tu- i|* san-|cto. Si- cut|e- rat|in prin-|ci- pi- o,|et nunc, et|sem- per,|
[Q:1/4=212] B8[Q:1/4=207] A4 |[Q:1/4=204] B6[Q:1/4=200] B2[Q:1/4=198] B4 | %106
w: et in|sae- cu- la|
[Q:1/4=194] G6[Q:1/4=192] G2[Q:1/4=189] A4 |[Q:1/4=186] B4[Q:1/4=182] A8 | %108
w: sae- cu- lo-|rum, A-|
[Q:1/4=180] !fermata!B12 |] %109
w: men.|
V:2
 G8 G6 G2 | G4 F6 F2 F4 | G4 F4 F6 F2 | E4 G4 G4 G4 | A8 G4 G4 | G4 G4 F8 | G4 G4 G4 G4 | E8 E8 | %8
w: Ma- gni- fi-|cat a- ni- ma|me- a Do- mi-|num. Et ex- ul-|ta- vit spi-|ri- tus me-|us in De- o|sa- lu-|
 C4 F4 E8 | E8 ||[M:3/2] E4 E4 E4 | F8 F4 | F4 F4 F4 | G8 G4 | G4 E4 D4 | E8 E4 | z4 E4 E4 | %17
w: ta- ri me-|o.|Qui- a re-|spe- xit|hu- mi- li-|ta- tem|an- cil- lae|su- ae:|ec- ce|
[M:3/2] G4 G4 A4 | G8 G4 | E4 E4 G4 | (G8 ^F4) | G4 G4 G4 | G12 | ^F12 | z4 D4 D4 | E6 E2 E4 | %26
w: e- nim ex|hoc be-|a- tam me|di\- *|cent o- mnes,|o-|mnes,|o- mnes|ge- ne- ra-|
 D4 D8 || D4 G8 E4 | (E4 D4) E4 E4- | E4 E4 G8 | G4 G4 F8- | F8 E8 | E8 z4 E4 | E4 F4 G4 A4 | %34
w: ti- o-|nes. Qui- a|fe\- * cit mi\-|* hi ma-|gna, qui po\-|* tens|est, et|san- ctum no- men|
 (G12 ^F4) | G8 ||[M:3/2] E8 E4 | F8 E4 | D6 F2 D4- | D4 C8 | D4 G4 ^F4 | G6 G2 G4 | z4 G4 F4 | %43
w: e\- *|ius.|Et mi-|se- ri-|cor- di- a|* e-|ius a pro-|ge- ni- e|in pro-|
 G6 G2 A4 | F4 G6 G2 |[M:3/2] E4 F8 | E8 z4 | ^F4 F4 F4 | G6 G2 G4 | E4 ^F6 F2 | G4 (G4 ^F4) | %51
w: ge- ni- es,|ti- men- ti-|bus e-|um.|Fe- cit po-|ten- ti- am|in bra- chi-|o su\- *|
 G8 G4 | G4 G4 G4 | A4 G4 z4 | G4 (G4 ^F4) | G4 G4 G4 | E12 | F4 D8 | E8 G4 | G8 G4 | A8 G4 | %61
w: o: di-|sper- sit, di-|sper- sit|su- per\- *|bos men- te|cor-|dis su-|i. De-|po- su-|it po-|
 A4 G4 G4 | ^F4 F4 F4 | G8 ^F4 | E8 ^F4- | F4 E6 E2 | ^D12 || z4 ^D4 D4 E4 | ^F8 F4 G4 | E4 E4 A8 | %70
w: ten- tes de|se- de, et|ex- al-|ta- vit|* hu- mi-|les.|E- su- ri-|en- tes im-|ple- vit bo-|
 ^G4 E4 E4 E4 | G4 G4 G4 G4 | z4 G4 ^F4 G4 ||[M:3/2] G4 ^F4 G4 | G6 G2 G4 | G4 A4 G4 | F12 | %77
w: nis: et di- vi-|tes di- mi- sit|i- na- nes.|Su- sce- pit|Is- ra- el|pu- e- rum|su-|
 G4 G4 G4 | A8 G4 | G4 G4 G4 | G6 G2 G4 | (G8 ^F4) | G12 || E8 ^F4 G4 | A4 ^F4 G4 G4 | %85
w: um, re- cor-|da- tus|mi- se- ri-|cor- di- ae|su\- *|ae.|Si- cut lo-|cu- tus est ad|
 G4 G4 =F4 G4 | G6 G2 G4 G4 | G8 G4 F4 | F8 E4 E4 | (F6 E2 D8 | C12) C4 | C8 ||[M:3/2] E6 E2 E4 | %93
w: pa- tres no- stros,|A- bra- ham, et|se- mi- ni|e- ius in|sae\- * *|* cu-|la.|Glo- ri- a|
[M:3/2] E4 F4 G4 | G6 G2 G4 | F8 F4 | E6 E2 D4- | D4 E8 | ^F4 F4 F4 | G8 G4 | z4 G4 G4 | A6 A2 A4 | %102
w: Pa- tri, et|Fi- li- o,|et Spi-|ri- tu- i|* san-|cto. Si- cut|e- rat|in prin-|ci- pi- o,|
 G4 F4 G4 | G8 G4 | G8 A4 | G6 G2 G4 | E6 E2 ^F4 | G4 (G4 ^F4) | !fermata!G12 |] %109
w: et nunc, et|sem- per,|et in|sae- cu- la|sae- cu- lo-|rum, A\- *|men.|
V:3
"^Ma- gni- fi- cat" d8 e6 e2 | e4 c6 c2 c4 | c4 c4 d6 d2 | G4 e4 d4 e4 | f8 e4 e4 | e4 e4 c8 | %6
w: |* a- ni- ma|me- a Do- mi-|num. Et ex- ul-|ta- vit spi-|ri- tus me-|
 e4 d4 d4 d4 | c8 B8 | A4 d4 B8 | ^c8 ||[M:3/2] =c4 c4 c4 | d8 d4 | c4 c4 c4 | e8 e4 | d4 c4 A4 | %15
w: us in De- o|sa- lu-|ta- ri me-|o.|Qui- a re-|spe- xit|hu- mi- li-|ta- tem|an- cil- lae|
 B8 B4 | z4 B4 c4 |[M:3/2][K:treble-8] d4 d4 d4 | d8 d4 | c4 c4 d4- | d4 c8 | d4 d4 e4 | d12 | %23
w: su- ae:|ec- ce|e- nim ex|hoc be-|a- tam me|* di-|cent o- mnes,|o-|
 d12 | z4 B4 B4 | B6 B2 c4 | B4 A8 || B4 d8 e4 | A8 B4 B4- | B4 c4 d8 | d4 e4 (c8 | d8 B6) B2 | %32
w: mnes,|o- mnes|ge- ne- ra-|ti- o-|nes. Qui- a|fe- cit mi\-|* hi ma-|gna, qui po\-|* * tens|
 ^c8 z4 c4 | ^c4 d4 e4 f4 | (e6 d2 c8) | d8 ||[M:3/2] c8 c4 | c8 c4 | c6 c2 B4- | B4 A8 | %40
w: est, et|san- ctum no- men|e\- * *|ius.|Et mi-|se- ri-|cor- di- a|* e-|
 B4 d4 c4 | d6 d2 e4 | z4 e4 d4 | e6 e2 f4 | d4 e6 e2 |[M:3/2][K:treble-8] ^c4 d8 | ^c8 z4 | %47
w: ius a pro-|ge- ni- e|in pro-|ge- ni- es,|ti- men- ti-|bus e-|um.|
 d4 d4 d4 | d6 d2 d4 | c4 c6 c2 | d4 d8 | d8 d4 | e4 d4 e4 | f4 e4 z4 | d4 c8 | d4 d4 d4 | c8 c4 | %57
w: Fe- cit po-|ten- ti- am|in bra- chi-|o su-|o: di-|sper- sit, di-|sper- sit|su- per-|bos men- te|cor- dis|
 (c8 B4) | c8 e4 | d8 e4 | f8 e4 | e4 d4 d4 | d4 d4 d4 | d8 d4 | B8 d4- | d4 e4 E4 | ^F12 || %67
w: su\- *|i. De-|po- su-|it po-|ten- tes de|se- de, et|ex- al-|ta- vit|* hu- mi-|les.|
 z4 B4 B4 B4 | d8 d4 d4 | c4 c4 A8 | B4 B4 B4 c4 | d4 e4 d4 e4 | z4 d4 d4 d4 ||[M:3/2] d4 c4 d4 | %74
w: E- su- ri-|en- tes im-|ple- vit bo-|nis: et di- vi-|tes di- mi- sit|i- na- nes.|Su- sce- pit|
 e6 e2 e4 | e4 f4 e4 | (d2 c2 d8) | e4 e4 e4 | f8 e4 | e4 e4 e4 | d6 d2 e4- | e4 c8 | d12 || %83
w: Is- ra- el|pu- e- rum|su\- * *|um, re- cor-|da- tus|mi- se- ri-|cor- di- ae|* su-|ae.|
 c4 e4 d8 | e4 d4 d4 d4 | e4 e4 c4 e4 | d6 d2 d4 d4 | e8 e4 c4 | d8 c4 c4 | (A8 _B8- | %90
w: Si- cut lo-|cu- tus est ad|pa- tres no- stros,|A- bra- ham, et|se- mi- ni|e- ius in|sae\- *|
 B4 A4 G6) G2 | A8 ||[M:3/2] c6 c2 c4 |[M:3/2][K:treble-8] c4 c4 e4 | d6 d2 d4 | d8 d4 | %96
w: * * * cu-|la.|Glo- ri- a|Pa- tri, et|Fi- li- o,|et Spi-|
 ^c6 c2 d4 | (d8 ^c4) | d4 D4 D4 | d8 d4 | z4 e4 e4 | f6 f2 f4 | d4 c4 d4 | e8 e4 | d8 d4 | %105
w: ri- tu- i|san\- *|cto. Si- cut|e- rat|in prin-|ci- pi- o,|et nunc, et|sem- per,|et in|
 d6 d2 d4 | c6 c2 c4 | d4 d8 | !fermata!d12 |] %109
w: sae- cu- la|sae- cu- lo-|rum, A-|men.|
V:4
 G,8 C,6 C,2 | C,4 F,6 F,2 F,4 | E,4 F,4 D,6 D,2 | C,4 C4 B,4 C4 | F,8 C4 C,4- | C,2 D,2 E,4 F,8 | %6
w: Ma- gni- fi-|cat a- ni- ma|me- a Do- mi-|num. Et ex- ul-|ta- vit spi\-|* ri- tus me-|
 C,4 G,4 G,4 G,4 | A,8 E,8 | F,4 D,4 E,8 | A,,8 ||[M:3/2] A,4 A,4 A,4 | D,8 D,4 | F,4 F,4 F,4 | %13
w: us in De- o|sa- lu-|ta- ri me-|o.|Qui- a re-|spe- xit|hu- mi- li-|
 C,8 C,4 | G,4 A,4 F,4 | E,8 E,4 | z4 E,4 A,4 |[M:3/2] G,4 G,4 ^F,4 | G,8 G,,4 | C,4 C,4 B,,4- | %20
w: ta- tem|an- cil- lae|su- ae:|ec- ce|e- nim ex|hoc be-|a- tam me|
 B,,4 A,,8 | G,,4 G,4 C,4 | (G,2 ^F,2 G,2 A,2 B,2 C2 | D8) D,4 | z4 G,4 F,4 | E,6 D,2 C,4 | %26
w: * di-|cent o- mnes,|o\- * * * * *|* mnes,|o- mnes|ge- ne- ra-|
 G,,4 D,8 || G,,4 G,8 C,4 | F,8 E,4 E,4- | E,4 A,4 G,8 | G,4 C,4 (F,6 E,2 | D,8 E,6) E,2 | %32
w: ti- o-|nes. Qui- a|fe- cit mi\-|* hi ma-|gna, qui po\- *|* * tens|
 A,,8 z4 A,4 | A,4 D4 C4 F,4 | (C6 B,2 A,8) | G,8 ||[M:3/2] C,8 C,4 | C,8 C,4 | F,,6 F,,2 G,,4- | %39
w: est, et|san- ctum no- men|e\- * *|ius.|Et mi-|se- ri-|cor- di- a|
 G,,4 A,,8 | G,,4 G,4 A,4 | G,6 G,2 C,4 | z4 C4 D4 | C6 C2 F,4 | _B,4 G,6 G,2 |[M:3/2] A,4 D,8 | %46
w: * e-|ius a pro-|ge- ni- e|in pro-|ge- ni- es,|ti- men- ti-|bus e-|
 A,8 z4 | D,4 D,4 D,4 | B,,6 B,,2 B,,4 | C,4 A,,6 A,,2 | G,,4 D,8 | G,,8 G,4 | C4 G,4 C,4 | %53
w: um.|Fe- cit po-|ten- ti- am|in bra- chi-|o su-|o: di-|sper- sit, di-|
 F,4 C,4 z4 | G,4 A,8 | G,4 G,,4 B,,4 | (C,6 B,,2 A,,4) | F,,4 G,,8 | C,8 C4 | B,8 C4 | F,8 C4 | %61
w: sper- sit|su- per-|bos men- te|cor\- * *|dis su-|i. De-|po- su-|it po-|
 A,4 B,4 G,4 | D4 D,4 D,4 | G,8 D,4 | E,8 D,4- | D,4 C,6 C,2 | B,,12 || z4 B,,4 B,,4 E,4 | %68
w: ten- tes de|se- de, et|ex- al-|ta- vit|* hu- mi-|les.|E- su- ri-|
 D,8 D,4 G,,4 | C,4 A,,4 F,8 | E,4 E,4 E,4 A,4 | G,4 C,4 G,4 C,4 | z4 G,,4 D,4 G,,4 || %73
w: en- tes im-|ple- vit bo-|nis: et di- vi-|tes di- mi- sit|i- na- nes.|
[M:3/2] G,4 A,4 G,4 | C6 C2 C4 | C4 C4 C4 | D12 | C4 C4 C4 | C8 C4 | C4 C4 C4 | B,6 B,2 C4- | %81
w: Su- sce- pit|Is- ra- el|pu- e- rum|su-|um, re- cor-|da- tus|mi- se- ri-|cor- di- ae|
 C4 A,8 | G,12 || C,8 C,4 B,,4 | A,,4 D,4 G,,4 G,4 | E,4 C,4 F,4 C,4 | G,6 G,2 G,4 G,4 | %87
w: * su-|ae.|Si- cut lo-|cu- tus est ad|pa- tres no- stros,|A- bra- ham, et|
 E,8 E,4 F,4 | _B,,8 C,4 C,4 | (D,6 C,2 _B,,8 | C,12) C,4 | F,,8 ||[M:3/2] C,6 C,2 C,4 | %93
w: se- mi- ni|e- ius in|sae\- * *|* cu-|la.|Glo- ri- a|
[M:3/2] C,4 F,4 E,4 | G,6 G,2 G,4 | D,8 D,4 | A,6 A,2 _B,4- | B,4 A,8 | D,4 D4 D4 | G,8 G,4 | %100
w: Pa- tri, et|Fi- li- o,|et Spi-|ri- tu- i|* san-|cto. Si- cut|e- rat|
 z4 C4 C4 | F,6 F,2 F,4 | G,4 A,4 B,4 | C8 C,4 | G,8 ^F,4 | G,6 G,2 G,,4 | C,6 B,,2 A,,4 | %107
w: in prin-|ci- pi- o,|et nun~c, et|sem- per,|et in|sae- cu- la|sae- cu- lo-|
 G,,4 D,8 | !fermata!G,,12 |] %109
w: rum, A-|men.|

